X:1
T:Alexander's Back From Dixie With His Ragtime Band
T:Alexander's Back From Dixie With His Ragtime Band
T:Music by PETE WENDLING
T:Words by LEW COLWELL
T:Copyright, 1917, by Lee S. Roberts
T:Copyright, 1917, by Lee S. Roberts
C:Pete Wendling
Z:Lew Cobwell
Z:Copyright, 1917, by Lee S. Roberts
%%score ( 1 2 ) { ( 3 5 ) | 4 }
L:1/8
M:2/4
K:C
V:1 treble nm="Voice"
V:2 treble 
V:3 treble nm="Piano"
V:5 treble 
V:4 bass 
V:1
 z4 | z4 | z4 | z4 | z4 | z4 | z4 | z4 |: z4 | z4 | z4 | z4 :|S c c2 c- | c4 | A A2 A- | A4 | %16
w: ||||||||||||Lis- ten Boys,|_|what's the noise?|_|
w: ||||||||||||Hear the flute,|_|toot, toot, toot,|_|
 G^F GF | G=F ED | EG ^FG | AG AB | c c2 c- | c4 | _A A2 A- | _A3 A | G=A cA | B G3 | c4- | %27
w: Some- thing 'bout it|sounds fa- mil- iar|Don't that mu- sic|seem to thrill yer,|Hear that drum,|_|rum, tum, tum,|_ It's|Al- ex- and- er's|Rag- time|Band,|
w: When that band starts|in a- play- ing|I just want to|start a- pray- ing,|Full of Pep,|_|keep in step,||When the band goes|march- ing|by,|
 c^A BA | B4- | B^A BA | B4- | B2 Bc | d2 d2 | d2 d2 | d4- | d2 || AB |: cB cB | dc G^F | %39
w: _ Come on and|hear,|_ come on and|hear,|_ It's the|fin- est|in the|land.|_|Al- ex-|and- er's back from|Dix- ie with his|
w: _ It sounds so|sweet,|_ it can't be|beat,|_ feel so|hap- py|I could|cry.|_||||
 =F E2 A- | A4 | ED ED | E D2 A- | A4- | A4 | GA BG | A G3 | GA BG | A G3 | cB cB | AB c^c | %51
w: Rag- time Band,|_|Play- ing all those|old- time tunes,|_||Pack your U- ka-|le- le,|Ship it to Bill|Bai- ley,|Once a- gain we're|goin' to lis- ten|
w: ||||||||||||
 d B2 G- | G4 | c c2 c- | c4 | cB cB | _B G3 | A A2 A- | A4 | A^G AG | F D3 | EG E^D | E G3 | %63
w: to the coons,|_|Hu- la maids|_|with their Yaa- ka|Hu- la,|Chase them all|_|back to Hon- o-|lu- lu,|Ev'- 'ry one start|sing- ing,|
w: ||||||||||||
 EG E^D | EG AB | cA cA | c B3 |1 c4- | c z AB :|2 c4- | c z z2!D.S.! |] %71
w: while your feet are|swing- ing, Al- ex-|and- er's back from|Dix- ie-|land!|* Al- ex|land!|_|
w: ||||||||
V:2
 x4 | x4 | x4 | x4 | x4 | x4 | x4 | x4 |: x4 | x4 | x4 | x4 :| x4 | x4 | x4 | x4 | x4 | x4 | x4 | %19
w: |||||||||||||||||||
w: |||||||||||||||||||
 x4 | x4 | x4 | x4 | x4 | x4 | x4 | x4 | x4 | x4 | x4 | x4 | B G z2 | x4 | x4 | x4 | x2 || x2 |: %37
w: ||||||||||||||||||
w: ||||||||||||* I||||||
 x4 | x4 | x4 | x4 | x4 | x4 | x4 | x4 | x4 | x4 | x4 | x4 | x4 | x4 | x4 | x4 | x4 | x4 | x4 | %56
w: |||||||||||||||||||
w: |||||||||||||||||||
 x4 | x4 | x4 | x4 | x4 | x4 | x4 | x4 | x4 | x4 | x4 |1 x4 | x4 :|2 x4 | x4 |] %71
w: |||||||||||||||
w: |||||||||||||||
V:3
"^Lively"!f! [CE][CEG][CE][C^D] | [CE] G3 | [CE][CEG][CE][C^D] | [CE][CEG][A,EA][B,B] | %4
 [C^Fc][CFA][CFc][CFA] | [C=Fc] [DFB]3 | [CEc]!>![CFA]- [CFA]/G/[B,FA]/G/ | %7
 [CEc]!>![Bfg] !>![cec'] z |:!mf! [EGc] [EGc]2 [EGc]- | [EGc][EG][EA][EG] | ^FA[Fce]!>![=FBd]- | %11
 [FBd][FB][FA][FG] :| [EGc] [EGc]2 [EGc]- | c4 | [CEA] [CEA]2 [CEA]- | A4 | %16
 [B,FG][B,^F][B,=FG][B,^F] | [B,G][B,=F][B,E][B,D] | [CE][CG][C^F][CG] | %19
 [B,=FA][B,FG][B,FA][B,FB] | [CEc] [CEc]2 [CEc]- | c4 | [C_E_A] [CEA]2 [CEA]- | _A3 A | %24
 [C=EG][CE=A] [CGc][C^FA] | [B,=FB] G3 | [CEc](^F/G/ A/G/F/G/ | [Ec])[^C^A][DB][CA] | %28
 B2- B/>^A/B/>A/ | B[^C^A][DGB][CA] | B2- B/>^A/B/>A/ | B2 [DGB][DGc] | [Dd]2 [Dd]2 | [Dd]2 [Dd]2 | %34
 d4- | d2 || [A,FA][B,FB] |:!p!!f! [CEc][B,EB][CEc][B,EB] | [DEd][CEc][G,EG][^F,^F] | %39
 [=F,^C=F] [E,CE]2 [A,CA]- | A4 | [^F,=CE][F,CD][F,CE][F,CD] | [^F,CE] [F,CD]2 [C^FA]- | [CFA]4- | %44
 A4 | [B,=FG][B,FA][B,FB][B,FG] | [B,FA] [B,FG]3 | [B,FG][B,FA][B,FB][B,FG] | [B,FA] [B,FG]3 | %49
 [CEc][B,EB][CEc][B,EB] | [A,^FA][B,FB][CFc][^C^c] | [D=Fd] [DFB]2 [B,FG]- | [B,FG]4 | %53
 [CEc] [CEc]2 [CEc]- | c4 | [CEc][B,EB][CEc][B,EB] | [_B,E_B] [B,EG]3 | [A,CFA] [A,CFA]2 [A,CFA]- | %58
 A4 | [^CGA][C^G][C=GA][C^G] | F D3 | [G,CE][G,CG][G,CE][G,C^D] | [G,CE] G3 | %63
 [G,CE][G,CG][G,CE][G,C^D] | [G,CE][G,G][A,GA][B,GB] | [C^Fc][CFA][CFc][CFA] | [C=Fc] [B,FB]3 |1 %67
 [CEc] !>!e2 !>!d- | dB [CFA][B,FB] :|2 [CEc]!>![CFA]- [CFA]/G/[B,FA]/G/ | %70
 [CEc]!>![Bfg] !>![cec'] z |] %71
V:4
 C,G, G,,G, | C,G, G,,G, | C,G, G,,G, | C,G, G,,G, | [D,,D,]z[A,,A,] z | [_A,,_A,] [G,,G,]3 | %6
 [C,,C,] !>![D,,D,]2 [G,,G,] | [C,G,]!>![G,,G,] !>![C,,C,] z |: [C,G,]z[G,,G,] z | %9
 [C,G,]z[G,,G,] z | [A,,A,]z[D,,D,] z | [G,,G,]G,A,B, :| [C,G,]z[G,,G,] z | [C,G,]z[G,,G,] z | %14
 [A,,A,]z[E,,E,] z | [A,,A,]z[E,,E,] z | [D,,D,]z[G,,,G,,] z | [D,,D,]z[G,,,G,,] z | %18
 [C,,C,][E,,E,][^D,,^D,][E,,E,] | [=D,,=D,]z[G,,,G,,] z | [C,,C,]z[G,,,G,,] z | %21
 [C,,C,]z[G,,,G,,] z | [_A,,_E,]z[_E,,E,] z | [_A,,_E,]z[_E,,E,] z | [G,,G,] z [=E,,=E,][_E,,_E,] | %25
 [D,,D,]z[G,,G,] z | [C,G,](^F,/G,/ A,/G,/F,/G,/ | [C,C]) z z2 | [G,,G,]2 [^F,,^F,]2 | %29
 [E,,E,]2 [D,,D,]2 | [G,,G,]2 [^F,,^F,]2 | [E,,E,]2 [D,,D,]2 | [A,,A,]2 [A,,A,]2 | %33
 [_A,,_A,]2 [A,,A,]2 | [G,,G,]C/C/ CC | B,2 || G,,2 |: [C,,C,]zG,, z | [C,,C,]zG,, z | %39
 [^C,,^C,]z[A,,,A,,] z | [E,,E,]z[A,,,A,,] z | [A,,,A,,]zD,, z | [A,,,A,,]zD,, z | %43
 [A,,,A,,]^C,D,E, | ^F,2 D,2 | [D,,D,]zG,, z | [D,,D,]^C,D,E, | [D,,D,]zG,, z | [D,,D,]G,,A,,B,, | %49
 C,z[A,,,A,,] z | [D,,D,]z[D,,D,] z | [G,,,G,,] [G,,,G,,]2 [D,,D,]- | %52
 [D,,D,][G,,,G,,][A,,,A,,][B,,,B,,] | [C,,C,]zG,, z | [C,,C,]zG,, z | [C,,C,]zG,, z | %56
 [C,,C,][C,,C,][D,,D,][E,,E,] | [F,,F,]z[C,,C,] z | [F,,F,]z[C,,C,] z | [E,,E,]zA,, z | %60
 [D,,D,]zG,, z | [C,,C,]zG,, z | [C,,C,]zG,, z | [C,,C,]zG,, z | [C,,C,]z[E,,E,] z | %65
 [D,,D,]z[A,,A,] z | [_A,,_A,] [G,,G,]3 |1 [C,G,] !>!E2 !>!D- | DC D,[G,,G,] :|2 %69
 [C,,C,] !>![D,,D,]2 [G,,G,] | [C,G,]!>![G,,G,] !>![C,,C,] z |] %71
V:5
 x4 | x [CE]2 [B,^D] | x4 | x4 | x4 | x4 | x4 | x4 |: x4 | x4 | x4 | x4 :| x4 | [EG][EG][EA][EG] | %14
 x4 | [CE][CE][CF][CE] | x4 | x4 | x4 | x4 | x4 | [CE][EG][EA][EG] | x4 | [CE][C_E][CF][CE] | x4 | %25
 x [B,F]2 [B,F] | x4 | x4 | z [DG]z[DG] | x4 | z [DG]z[DG] | z [DG] x2 | z [^Fc]z[Fc] | %33
 z [=Fc]z[Fc] | D[FA]/[FA]/ [FA][F_A] | [FG]2 || x2 |: x4 | x4 | x4 | [A,C][A,^C] z [A,C] | x4 | %42
 x4 | x4 | [CF][CD] z [C^F] | x4 | x4 | x4 | x4 | x4 | x4 | x4 | x4 | x4 | [CE][EG][EA][EG] | x4 | %56
 x4 | x4 | [A,CF][A,C][A,D][A,C] | x4 | [A,D]A, z [G,B,] | x4 | x [G,CE]2 !>![G,B,^D] | x4 | x4 | %65
 x4 | x4 |1 x4 | x4 :|2 x4 | x4 |] %71

